X:22
T:This Is My Love, Do You Like Her?
M:12/8
L:1/8
%Q:3/8=130
Q:3/8=110
R:slide
K:Ador
A6 A3 A3 |
%
|: A2A AGE c2B c2d|efe ede g3 g2e|
def g2e dBA G2A|1Bde dBG A2B c2B:|2Bde dBG A3 ABd||
|:eaa age dgg gfg|eaa agf g2b a2g|
eaf g2e dBA G2A|1Bde dBG A3 ABd:|2bde dBG A2B c2B||
%
|: A2A AGE c2B c2d|efe ede g3 g2e|
def g2e dBA G2A|1Bde dBG A2B c2B:|2Bde dBG A3 ABd||
|:eaa age dgg gfg|eaa agf g2b a2g|
eaf g2e dBA G2A|1Bde dBG A3 ABd:|2bde dBG A2B c2B||
%
|: A2A AGE c2B c2d|efe ede g3 g2e|
def g2e dBA G2A|1Bde dBG A2B c2B:|2Bde dBG A3 ABd||
|:eaa age dgg gfg|eaa agf g2b a2g|
eaf g2e dBA G2A|1Bde dBG A3 ABd:|2bde dBG A2B c2B||
%
|: A2A AGE c2B c2d|efe ede g3 g2e|
def g2e dBA G2A|1Bde dBG A2B c2B:|2Bde dBG A3 ABd||
|:eaa age dgg gfg|eaa agf g2b a2g|
eaf g2e dBA G2A|1Bde dBG A3 ABd:|2bde dBG A2B c2B||
%
|: A2A AGE c2B c2d|efe ede g3 g2e|
def g2e dBA G2A|1Bde dBG A2B c2B:|2Bde dBG A3 ABd||
|:eaa age dgg gfg|eaa agf g2b a2g|
eaf g2e dBA G2A|1Bde dBG A3 ABd:|2bde dBG A2B c2B||
%
|: A2A AGE c2B c2d|efe ede g3 g2e|
def g2e dBA G2A|1Bde dBG A2B c2B:|2Bde dBG A3 ABd||
|:eaa age dgg gfg|eaa agf g2b a2g|
eaf g2e dBA G2A|1Bde dBG A3 ABd:|2bde dBG A2B c2B||
%

